svgs/duotone/dice-three.svg

<svg xmlns="http://www.w3.org/2000/svg" viewBox="0 0 448 512"><!-- Font Awesome Pro 6.0.0-alpha2 by @fontawesome - https://fontawesome.com License - https://fontawesome.com/license (Commercial License) --><defs><style>.fa-secondary{opacity:.4}</style></defs><path d="M384 32H64C28.625 32 0 60.625 0 96V416C0 451.375 28.625 480 64 480H384C419.375 480 448 451.375 448 416V96C448 60.625 419.375 32 384 32ZM128 192C110.375 192 96 177.625 96 160S110.375 128 128 128S160 142.375 160 160S145.625 192 128 192ZM224 288C206.375 288 192 273.625 192 256S206.375 224 224 224S256 238.375 256 256S241.625 288 224 288ZM320 384C302.375 384 288 369.625 288 352S302.375 320 320 320S352 334.375 352 352S337.625 384 320 384Z " class="fa-secondary"></path><path d="M128 128C110.375 128 96 142.375 96 160S110.375 192 128 192S160 177.625 160 160S145.625 128 128 128ZM320 320C302.375 320 288 334.375 288 352S302.375 384 320 384S352 369.625 352 352S337.625 320 320 320ZM224 224C206.375 224 192 238.375 192 256S206.375 288 224 288S256 273.625 256 256S241.625 224 224 224Z " class="fa-primary"></path></svg>

<svg xmlns="http://www.w3.org/2000/svg" viewBox="0 0 448 512"><!--! Font Awesome Pro 6.3.0 by @fontawesome - https://fontawesome.com License - https://fontawesome.com/license (Commercial License) Copyright 2023 Fonticons, Inc. --><defs><style>.fa-secondary{opacity:.4}</style></defs><path class="fa-primary" d="M128 128C110.4 128 96 142.4 96 160s14.38 32 32 32s32-14.38 32-32S145.6 128 128 128zM320 320c-17.62 0-32 14.38-32 32s14.38 32 32 32s32-14.38 32-32S337.6 320 320 320zM224 224C206.4 224 192 238.4 192 256s14.38 32 32 32s32-14.38 32-32S241.6 224 224 224z"/><path class="fa-secondary" d="M384 32H64C28.62 32 0 60.62 0 96v320c0 35.38 28.62 64 64 64h320c35.38 0 64-28.62 64-64V96C448 60.62 419.4 32 384 32zM128 192C110.4 192 96 177.6 96 160s14.38-32 32-32s32 14.38 32 32S145.6 192 128 192zM224 288C206.4 288 192 273.6 192 256s14.38-32 32-32s32 14.38 32 32S241.6 288 224 288zM320 384c-17.62 0-32-14.38-32-32s14.38-32 32-32s32 14.38 32 32S337.6 384 320 384z"/></svg>
